X:505
T: Sanbeijiu
N: C1924
O: China, Hebei Yuanshi
S: IV, 44]
R: Xiaodiao]
M: 2/4
L: 1/16
K: F
c4c2G2 | c2d2c4 | c4f2A2 | G4G4
c2c2G2cA | G4c2A2 | G4F3D | F2F2G2D2 | C8
c2c2G2A2 | G4F2D2 | F2F2G2D2 | C8

